!! 00045] TT[TB
!! Zh. Ch. M-3084, NN), Peking: LP 34862/856)
!!!OTL: Jiangxi shige hao difang
!!!ARE: Asia, China,ˇJiangxi, Jinxian
!! Ethnic Group: Han
!! IV, 214
!!!SCT: C1223
!!!YEM: Copyright 1995, estate of Helmut Schaffrath.
**kern
*ICvox
*Ivox
*M2/4
*k[b-]
*F:
{8a
4g
16g
16a
=1
8cc
8dd
4cc
=2
8a
16a
16dd
8cc
8a
=3
8g
8f
4g}
=4
{8g
8cc
8cc
16a
16g
=5
4f
16g
16f
16d
16f
=6
2c}
=7
{8.a
16g
8f
8a
=8
8g
8f
4g}
=9
{8.a
16g
8f
8a
=10
8g
8f
4g}
=11
{8g
8cc
8cc
16a
16g
=12
4f
16g
16f
16d
16f
=13
4c}
{16d
16f
16c
16d
=14
8f
8f
8r
16g
16a
=15
8f
8f
8r
16d
16f
=16
2g}
=17
{8g
8cc
8cc
16a
16g
=18
4f
16g
16f
16d
16f
=19
2c}
==
!!!AGN: Xiaodiao, MengjiangnÅ diao, Guaziren diao. Xin minge
!! Plattenhuelle, schlecht) kopiert.
!!!ONB: ESAC (Essen Associative Code) Database: CHINA
!!!AMT: simple duple
!!!AIN: vox
!!!EED: Helmut Schaffrath
!!!EEV: 1.0
*-
